X:1
T:Capulin, 87.87 D
T:Capulin, 87.87 D
T:Charles Edward Prior, 1883
T:Public Domain Courtesy of the Cyber Hymnal™
C:Charles Edward Prior, 1883
Z:Public Domain
Z:Courtesy of the Cyber Hymnal™
%%score ( 1 2 ) ( 3 4 )
L:1/8
Q:1/4=95
M:4/4
K:Bb
V:1 treble 
V:2 treble 
V:3 bass 
V:4 bass 
V:1
 (FB) ([FA][EG]) [DF]2 [B,D]2 | ([CE][B,D]) ([CE][A,F]) [B,D]2 [DF]2 | %2
 (FB) ([FA][EG]) ([DF]2 [Fd]2) | (dc) (cB) ([FA]2 [_Ec]2) | ([DB][Fd]) ([Ec][DB]) [EG]2 [EG]2 | %5
 ([EG][GB]) ([FA][EG]) ([DF]>[CE]) ([B,D][DF]) | ([EG][FA]) (Bc) [Fd]2 [Fd]2 | (dc) (cd) [DB]4 | %8
 [Fd]2 [Fd]>[Ec] [DB]2 [FA]>[EG] | [DF]4 [DB]2 [DB]>[Ec] | [Fd]2 [Fd]2 [Fc]2 [=EB]2 | c4 [Fe]4 | %12
 [Fd]2 [Fd]>[Ec] [DB]2 [FA]>[EG] | [DF]4 [DB]2 [DB]>[Ec] | [Fd]3 [Fd] [Fd]2 [Ec]2 | [DB]6 z2 |] %16
V:2
 D2 x6 | x8 | D2 x6 | =E2 E2 x4 | x8 | x8 | x2 G2 x4 | E2 E2 x4 | x8 | x8 | x8 | F2 F>F x4 | x8 | %13
 x8 | x8 | x8 |] %16
V:3
 [B,,B,]2 [B,,B,]2 [B,,B,]2 [B,,F,]2 | [F,,F,]2 [F,,F,]2 [B,,F,]2 [B,,B,]2 | %2
 [B,,B,]2 [B,,B,]2 ([B,,B,]2 [B,,B,]2) | [C,G,]2 [C,C]2 (C2 B,2) | %4
 [B,,B,]2 [B,,B,]2 [E,B,]2 [E,B,]2 | [E,B,]2 [E,B,]2 (B,>F,) (F,B,) | %6
 [E,B,]2 [E,B,]2 [B,,B,]2 [B,,B,]2 | [F,A,]2 [F,A,]2 [B,,B,]4 | %8
 [B,,B,]2 [B,,B,]>[B,,F,] [B,,F,]2 [B,,F,]>[B,,F,] | [B,,B,]4 [B,,B,]2 [B,,B,]>[B,,B,] | %10
 B,2 B,2 [A,C]2 [G,C]2 | ([F,A,]2 A,2) [F,C]4 | [B,,B,]2 [B,,B,]>[B,,F,] [B,,F,]2 [B,,F,]>[B,,F,] | %13
 [B,,B,]4 [B,,B,]2 [G,B,]>[G,B,] | [F,B,]3 [F,B,] [F,A,]2 [F,A,]2 | [B,,B,]6 z2 |] %16
V:4
 x8 | x8 | x8 | x4 F,4 | x8 | x4 B,,2 B,,2 | x8 | x8 | x8 | x8 | B,2 B,2 x4 | x2 F,>F, x4 | x8 | %13
 x8 | x8 | x8 |] %16

